X:7957
T:Goder afton
C:anon.
O:Sweden
R:Christma song
F:http://abc.musicaviva.com/tunes/sweden/goder-afton.abc
M:3/4
L:1/8
K:G
dd|"G"B2B2dd|"G"B2B2dd|"C"c2c2e2|"C"g4g2|
"D7"f2f2ee|"G"d2d2B2|"D7"c2c2F2|"G"G4|]
W:
W:
W:  From Musica Viva - http://www.musicaviva.com
W:  the Internet center for free sheet music downloads.
